packages/flame/svg/Icons/icon-apple.svg

<?xml version="1.0" encoding="UTF-8"?>
<svg width="16px" height="16px" viewBox="0 0 16 16" version="1.1" xmlns="http://www.w3.org/2000/svg" xmlns:xlink="http://www.w3.org/1999/xlink">
    <!-- Generator: sketchtool 64 (101010) - https://sketch.com -->
    <title>FC1BF42A-D125-4A53-8EDD-FA42C34492B8@3.00x</title>
    <desc>Created with sketchtool.</desc>
    <g id="Symbols" stroke="none" stroke-width="1" fill="none" fill-rule="evenodd">
        <g id="apple" fill="#232A3B">
            <g id="base-1">
                <path d="M13.7484986,11.8190054 C13.533051,12.3225709 13.2780311,12.7861001 12.9825599,13.2122627 C12.5798043,13.7932306 12.2500374,14.1953716 11.9958969,14.4186845 C11.6019355,14.7852374 11.1798337,14.9729622 10.7278329,14.9836388 C10.4033424,14.9836388 10.0120188,14.8902207 9.55650069,14.7007173 C9.09948779,14.5121014 8.67949644,14.4186845 8.29547171,14.4186845 C7.89271631,14.4186845 7.4607654,14.5121014 6.99873998,14.7007173 C6.53601052,14.8902207 6.16324215,14.988977 5.8782354,14.9987637 C5.44478965,15.0174471 5.01275126,14.824384 4.58150367,14.4186845 C4.30625843,14.1757983 3.96198177,13.7594223 3.54955294,13.1695565 C3.10704978,12.5396557 2.74325083,11.8092188 2.4582442,10.9764674 C2.15301189,10.076989 2,9.20598078 2,8.36273128 C2,7.39679304 2.20630225,6.56368567 2.61952224,5.86554447 C2.94427676,5.3047721 3.37631547,4.86241724 3.91704514,4.53767958 C4.4577753,4.2129424 5.04203449,4.04745977 5.67123006,4.03687221 C6.01550648,4.03687221 6.46697982,4.14461389 7.02802321,4.35636058 C7.58748392,4.56881897 7.94671018,4.67656065 8.10420665,4.67656065 C8.22195541,4.67656065 8.62101745,4.55058007 9.29752349,4.29942044 C9.93727174,4.06649911 10.47721,3.97005619 10.9195374,4.00804599 C12.1181307,4.10591216 13.0186144,4.58394364 13.6174713,5.44516518 C12.5455089,6.1022916 12.0152434,7.02267758 12.0257959,8.20338737 C12.0354691,9.12306154 12.3652359,9.88837424 13.013338,10.4960341 C13.3070502,10.7780659 13.6350587,10.9960404 14,11.150847 C13.920857,11.3830564 13.837316,11.6054794 13.7484986,11.8190054 Z M11,0.337929603 C11,1.18270603 10.7397341,1.97147138 10.2209619,2.70154441 C9.59491741,3.56945843 8.83768583,4.07097964 8.01653033,3.99184159 C8.00606709,3.89049448 8,3.78383015 8,3.67174389 C8,2.86075941 8.29772275,1.99284582 8.82643127,1.28320855 C9.09038928,0.923906782 9.42609668,0.625152219 9.83320132,0.386830041 C10.2394265,0.152063773 10.6236699,0.02223297 10.9850518,-8.8817842e-16 C10.9956038,0.112933411 11,0.22587393 11,0.337918647 L11,0.337929603 Z"></path>
            </g>
        </g>
    </g>
</svg>

<svg xmlns="http://www.w3.org/2000/svg" viewBox="0 0 16 16"><g id="apple"><path id="base-1" d="M13.748 11.819c-.215.504-.47.967-.765 1.393-.403.581-.733.983-.987 1.207-.394.366-.816.554-1.268.565-.325 0-.716-.094-1.171-.283-.458-.189-.878-.282-1.262-.282-.402 0-.834.093-1.296.282-.463.19-.836.288-1.12.298-.434.018-.866-.175-1.297-.58-.276-.243-.62-.66-1.032-1.25a8.678 8.678 0 0 1-1.092-2.193C2.153 10.077 2 9.206 2 8.363c0-.966.206-1.8.62-2.497a3.656 3.656 0 0 1 1.297-1.328 3.46 3.46 0 0 1 1.754-.501c.345 0 .796.108 1.357.32.56.212.919.32 1.076.32.118 0 .517-.126 1.194-.378.64-.233 1.18-.329 1.622-.291 1.198.098 2.099.576 2.697 1.437-1.071.657-1.602 1.578-1.591 2.758.01.92.34 1.685.987 2.293.294.282.622.5.987.655a11.5 11.5 0 0 1-.252.668zM11 .338c0 .845-.26 1.633-.779 2.364-.626.867-1.383 1.369-2.204 1.29A3.113 3.113 0 0 1 8 3.672c0-.811.298-1.68.826-2.389.264-.36.6-.658 1.007-.896.406-.235.79-.365 1.152-.387.01.113.015.226.015.338z"/></g></svg>
